X: 7
T: The Man Of The House
R: reel
M: 4/4
L: 1/8
K: Emin
|: E2 BE GABG | E2 BE FDAD | E2 BE GABc | dBcA BEED |
E2 BE GABG | E2 BE FDAD | E2 BE GABc | dBcA BE E2||
|: efge fgaf | gfed Bded | efge fgaf | gfed Be e2 |
efge fgaf | gfed efga | bgaf gfed | edBA GBFB ||


Tune 222	Setting 222

